X: 14095
T: STONY CREEK
C: Bob McQuillen 25 Dec.'09
B: Bob's Note Book 14 #95
%R: reel
%D:2009
Z: 2020 John Chambers <jc:trillian.mit.edu>
M: C
L: 1/8
K: D
AG \
| FDFA dfaf | gfed efdB | ABAF DFAF | G2E2 E2AG |
| FDFA dfaf | gfed cedB | Adfd cAce | d2f2 d2 :|
|: fg \
| a2fd edBd | ABAG FDFA | BGBd gfed | c2A2 A2FA  |
| Bded cAfe | dBgf eAeg | fafd cAce | d2f2 d2 :|
%%begintext align
%% My fiddler friend, John
%% Brennan, from down Philly way, has gone quite far into the
%% jewelry business, which he does at home. When he makes
%% something really pretty, which is usually what happens,
%% then he is apt to tune up his fiddle and play a lovely Irish
%% tune to celebrate it. His little company is called "Stony Creek"
%% (he lives right next to it), and he's having a wonderful time.
%%endtext

%%sep 1 1 500

%%sep 1 1 500

